X: 4333
T: HOME TO OUR MOUNTAINS. (il Trovatore.)
%R: air, waltz
B: James Kerr "Merry Melodies" v.4 p.35 #333
Z: 2016 John Chambers <jc:trillian.mit.edu>
M: 3/8
L: 1/8
K: G
|:!p!\
BGD | G>AG | BGD | G>AG |\
cAF | d>ed |[1 cEF | G3 :|[2 AB^c | d3 |:\
BBc | d2e/>d/ | BBc | d2g |\
fed |[1 B2g | fge | d3 :|\
[2 B2e/>d/ | dcA | G3 |]

%%sep 1 1 500
%%sep 1 1 500

